X:1487
T:Sauntering in the Lane
R:reel
N:"collected from J. O'Neill"
B:"O'Neill's Dance Music of Ireland, 1487"
T: ag sgra.tana.cd annsa .bo.tarin.
Z:transcribed by John B. Walsh, 8/22/96
M:C|
L:1/8
K:D
((3ABc)|d3A T(BA)FE|DFAc dcBA|dfaf bagf|eagb a2 ((3ABc)|
dcdA T(BA)FE|DFAc dcBA|dfaf bgec|dfec d2||
A2|defg afdf|afgf afdc|defg afdf|gfedc2 ((3ABc)|
defg afdf|afgf afdf|gfed cABc|dfec d2||


